assets/icons/qvision/settings_voice.svg

<svg xmlns="http://www.w3.org/2000/svg" height="24" viewBox="0 0 24 24" width="24"><path d="M0 0h24v24H0z" fill="none"/><path d="M7 24h2v-2H7v2zm5-11c1.66 0 2.99-1.34 2.99-3L15 4c0-1.66-1.34-3-3-3S9 2.34 9 4v6c0 1.66 1.34 3 3 3zm-1 11h2v-2h-2v2zm4 0h2v-2h-2v2zm4-14h-1.7c0 3-2.54 5.1-5.3 5.1S6.7 13 6.7 10H5c0 3.41 2.72 6.23 6 6.72V20h2v-3.28c3.28-.49 6-3.31 6-6.72z"/></svg>

<svg width="24" height="24" viewBox="0 0 24 24" fill="none" xmlns="http://www.w3.org/2000/svg">
<g clip-path="url(#clip0_147_4744)">
<path d="M7 24H9V22H7V24ZM12 13C13.66 13 14.99 11.66 14.99 10L15 4C15 2.34 13.66 1 12 1C10.34 1 9 2.34 9 4V10C9 11.66 10.34 13 12 13ZM11 24H13V22H11V24ZM15 24H17V22H15V24ZM19 10H17.3C17.3 13 14.76 15.1 12 15.1C9.24 15.1 6.7 13 6.7 10H5C5 13.41 7.72 16.23 11 16.72V20H13V16.72C16.28 16.23 19 13.41 19 10Z" fill="#323232"/>
</g>
<defs>
<clipPath id="clip0_147_4744">
<rect width="24" height="24" fill="white"/>
</clipPath>
</defs>
</svg>
